!!!!SEGMENT: pl-wtm--r-609-1-m_moniuszko-stanislaw--libella-albo-zemsta-owadu-akt-2.krn
!!!cenid: 18xx:3000
!!!COM: Moniuszko, Stanisław
!!!COM-rismID: pe30008351
!!!CDT: 1819/05/05-1872/06/04
!!!CNT: Polish
!!!GTL: Libella albo Zemsta Owadu
!!!OTL: Akt 2
!!!PDT: 1871
!!!AGN: Secular
!!!SMS-siglum: PL-Wtm
!!!SMS-shelfmark: R 609/1/M
!!!SMS-shelfwork: G
!!!SMS-variant:
!!!SMS-altvar:
!!!NIFC-rismSourceID: 1001090849
!!!NIFC-islandoraID:
!!!URL-pdf-islandora:
!!!URL-scan:
!!!ONB-nifc: UWAGA: obsada: vl, pf. Bez podziału na części.
!!!OMD: Andante.
!!!AIN: 1 empty 1 violn
!!!key:
**kern	**kern	**dynam	**kern	**dynam
*part2	*part2	*part2	*part1	*part1
*staff3	*staff2	*	*staff1	*
*Iempty	*Ipiano	*	*Ivioln	*
*	*I"[Piano]	*	*I"[Violino]	*
*clefF4	*clefG2	*	*clefG2	*
*k[b-]	*k[b-]	*	*k[b-]	*
*F:	*F:	*	*F:	*
*M4/4	*M4/4	*	*M4/4	*
*met(c)	*met(c)	*	*met(c)	*
*all\right	*all\right	*	*all\right	*
=1	=1	=1	=1	=1
!	!	!LO:DY:rj	!	!LO:DY:rj
8FF 8FFF/	8ff 8cc 8a\	ff	8aa 8a\	ff
8r	8r	.	8r	.
8AA 8AAA/	8cc 8f 8c/	.	8ff 8a\	.
8r	8r	.	8r	.
8BB- 8BBB-/	8b- 8f 8d/	.	8dd 8d/	.
8r	8r	.	8r	.
8C 8CC/	8g 8e 8c/	.	8cc 8e/	.
8r	8r	.	8r	.
=2	=2	=2	=2	=2
2F 2FF/	2a 2f 2c/	.	2a 2f/	.
4r	4r	.	4r	.
8D 8DD/	8dd 8bn 8a 8f 8d\	.	8ff 8dd 8d\	.
8r	8r	.	8r	.
=3	=3	=3	=3	=3
8E 8EE/	8bn 8g#X 8e 8d/	.	8ee 8bn 8e\	.
8r	8r	.	8r	.
8A 8AA\	8a 8e 8c/	.	8cc 8e/	.
8r	8r	.	8r	.
8A 8D\	8f 8d/	.	8a 8d/	.
8r	8r	.	8r	.
8G 8GG\	8b-X 8f 8d/	.	8dd 8d/	.
8r	8r	.	8r	.
=4	=4	=4	=4	=4
*tremolo	*	*	*	*
32CC/LLL	2g 2e 2c/	>	2g 2G/	.
32C/	.	.	.	.
32CC/	.	.	.	.
32C/	.	.	.	.
32CC/	.	.	.	.
32C/	.	.	.	.
32CC/	.	.	.	.
32C/	.	.	.	.
32CC/	.	.	.	.
32C/	.	.	.	.
32CC/	.	.	.	.
32C/	.	.	.	.
32CC/	.	.	.	.
32C/	.	.	.	.
32CC/	.	.	.	.
32C/JJJ	.	]	.	.
*Xtremolo	*	*	*	*
8CC/	2r	.	4r	.
8r	.	.	.	.
!	!	!	!	!LO:DY:rj
4r	.	.	8.a/L	p
.	.	.	16b-/Jk	.
=5	=5	=5	=5	=5
1ryy	4r	p	2g/	.
.	(8.d<L 8.B-<\	.	.	.
.	16c#X<Jk 16A<\)	.	.	.
.	4c#< 4A<\	.	4r	.
.	4r<	.	8.ee\L	.
.	.	.	16dd\Jk	.
=6	=6	=6	=6	=6
*	*	*	*2\right	*
1ryy	4r<	.	2.ff\	.
.	(8.cn<L 8.A-X<\	.	.	.
.	16B-<Jk 16G<\)	.	.	.
.	4B-< 4G<\	.	.	.
.	.	.	16qqgg/LL	.
.	.	.	16qqff/JJ	.
.	4e< 4c< 4G#X<\	.	8.ee\L	.
.	.	.	16dd\Jk	.
!!LO:LB:g=original
=7	=7	=7	=7	=7
4A\	4e/	.	4cc\	.
8.dL 8.B-\	8.g/L	.	8.b-/L	.
16c\Jk	16f/Jk	.	16a/Jk	.
8c\	8e/	.	4a/	.
8r	8r	.	.	.
8G 8E 8C'\	8c/	.	8g/L	.
8ryy	8r	.	16r	.
.	.	.	16c/Jk	.
=8	=8	=8	=8	=8
*^	*	*	*	*
*2\right	*	*	*	*	*
!	!	!	!LO:DY:b=2	!	!
2G/	2F 2D\	2Bn/	sf	(8Bn^/L	.
.	.	.	.	8a/J)	.
.	.	.	.	[4g/	.
8GL 8E 8C\	2ryy	16B-X/LL	.	32g/LLL]	.
.	.	.	.	32f#X/	<
.	.	16c/	<	32g/	.
.	.	.	.	32a/JJJ	.
8G 8E 8C\	.	16e/	.	32b-/LLL	.
.	.	.	.	32a/	.
.	.	16g/JJ	.	32b-/	.
.	.	.	.	32cc/JJJ	.
8G 8E 8C\	.	16.b-\LL	.	32dd\LLL	.
.	.	.	.	32cc\	.
.	.	.	.	32dd\	.
.	.	32cc\K	.	32ee\JJJ	.
8B-J 8BB-\	.	16.dd\	.	32ffn\LLL	[
.	.	.	.	32ee\	.
.	.	.	.	32ff\	.
!	!	!LO:N:vis=16	!	!	!
.	.	32ee\JJk	[	32gg\JJJ	.
*v	*v	*	*	*	*
=9	=9	=9	=9	=9
!	!	!LO:DY:rj	!	!LO:DY:rj
8AAL 8AAA^/	8eeL 8cc#X 8a^\	f	8aa^\L	f
8D 8DD^/	8dd 8a 8f^\	.	8ff^\	.
8G 8GG^/	8b- 8g 8d^\	.	8dd^\	.
8C^/J	8gJ 8e 8cn^\	.	8cc^\J	.
8F^/L	8fL 8c^/	.	8a^/L	.
8F 8AA^/	8f 8c^/	.	8f^/	.
8F 8BB-^/	8e 8c#X^/	.	8e^/	.
8FJ 8BBn^/	8dJ 8G#X^/	.	8d^/J	.
=10	=10	=10	=10	=10
*^	*	*	*	*
(<4F/	2.C\	(>4c/	.	(16c/LL	.
.	.	.	.	16f/	.
.	.	.	.	16a/	.
.	.	.	.	16dd/JJ)	.
4F#X/	.	4e-X 4c/	.	4.cc^\	.
!	!	!	!	!	!LO:HP:t=dimin.
2G/)	.	4d 4B-/	.	.	>
.	.	.	.	(16g/LL	.
.	.	.	.	16a/JJ)	.
!	!	!LO:SIC:v:n=1:s=4en	!	!	!
.	.	.	.	8qcc/	.
.	4C 4CC\	4e- 4B-/)	.	8.b-/L	.
.	.	.	.	16e/Jk	.
!!LO:LB:g=original
=11	=11	=11	=11	=11	=11
!LO:N:vis=2	!	!	!LO:DY:rj	!LO:TX:a:t=dolce	!LO:DY:rj
(<8FF/L	2FF\	(8fL 8A/	p	([4f/	p
8C/	.	8c/	.	.	.
8F/	.	8A/	.	16f/LL]	.
.	.	.	.	16g/	.
8C/J)	.	8c/J)	.	16a/	.
.	.	.	.	16cc/JJ	.
*rep	*rep	*rep	*	*	*
!LO:N:vis=2	!	!	!	!	!
(<8FF/L	2FF\	(8fL 8A/	.	[4aa\	.
8C/	.	8c/	.	.	.
8F/	.	8A/	.	16aa\LL]	.
.	.	.	.	16gg\	.
8C/J)	.	8c/J)	.	16ff\	.
.	.	.	.	16dd\JJ)	.
*Xrep	*Xrep	*Xrep	*	*	*
=12	=12	=12	=12	=12	=12
*rep	*rep	*rep	*	*	*
!LO:N:vis=2	!	!	!	!	!
(<8FF/L	2FF\	(8fL 8A/	.	([4cc\	.
8C/	.	8c/	.	.	.
8F/	.	8A/	.	16cc\LL]	.
.	.	.	.	16bn\	.
8C/J)	.	8c/J)	.	16b-X\	.
.	.	.	.	16a\JJ)	.
*Xrep	*Xrep	*Xrep	*	*	*
!LO:N:vis=2	!	!	!	!	!
(<8FF/L	2FF\	(8eL 8B-/	.	(16g/LL	.
.	.	.	.	16f#X/)	.
8C/	.	8c/	.	16g/	.
.	.	.	.	16a/JJ	.
.	.	.	.	8qcc/	.
8E/	.	8g/	.	(16b-/LL	.
.	.	.	.	16a/)	.
8C/J)	.	8c/J)	.	16b-/	.
.	.	.	.	16bn/JJ	.
=13	=13	=13	=13	=13	=13
!LO:N:vis=2	!	!	!	!	!
(<8FF/L	2FF\	(8fL 8A/	.	([4dd\	<
8C/	.	8c/	.	.	.
8F/	.	8A/	.	16dd\LL]	.
.	.	.	.	16cc\	.
8C/J)	.	8c/J	.	16ff\	.
.	.	.	.	16aa\JJ	[
*rep	*rep	*	*	*	*
!LO:N:vis=2	!	!	!	!	!
(<8FF/L	2FF\	8aL 8f 8A/	.	[4ccc\	>
8C/	.	8c/	.	.	.
8F/	.	8A/	.	16ccc\LL]	]
.	.	.	.	16aa\	.
8C/J)	.	8c/J)	.	16ff\	.
.	.	.	.	16dd\JJ)	.
*Xrep	*Xrep	*	*	*	*
=14	=14	=14	=14	=14	=14
*rep	*rep	*	*	*	*
!LO:N:vis=2	!	!	!	!	!
(<8FF/L	2FF\	(8A/L	.	(16cc\LL	.
.	.	.	.	16ee\J)	.
8C/	.	8c/	.	([8ff^\J	.
8F/	.	8f/	.	16ff\LL]	.
.	.	.	.	16cc\	.
8C/J)	.	8c/J)	.	16b-\	.
.	.	.	.	16a\JJ)	.
*Xrep	*Xrep	*	*	*	*
(<8E/L	4.AA\	(8c#X/L	.	(16g/LL	.
.	.	.	.	16f#X/	.
8F/	.	8d/	.	16fn/	.
.	.	.	.	16e/JJ	.
8F#X/	.	8cn/	.	16e-X/LL	.
.	.	.	.	16d/	.
8GJ 8E/)	8C 8CC\	8B-/J	.	16d-X/	.
.	.	.	.	16c/JJ)	.
*v	*v	*	*	*	*
=15	=15	=15	=15	=15
!	!	!	!LO:TX:a:i:t=(&colon; le rideau &colon;)	!
16CLL 16FF\	16ALL 16Fn</)	.	8.c/L	.
16CJJ 16FF\	16AJJ 16F</	.	.	.
[<4.C [4.FF\	[4.A [>4.F</	.	.	.
!	!	!	!	!LO:HP:t=dimin&colon;
.	.	.	16f/Jk	>
.	.	.	(16a/LL	.
.	.	.	16cc/	.
.	.	.	16dd/	.
.	.	.	16ff/JJ)	.
16C]LL 16FF/]	16A]LL 16F</]	.	4aa\	.
16CJ 16FF/	16cJ 16A/	.	.	.
[8CJ [8FF/	[8cJ [8A/	.	.	.
16C]LL 16FF/]	16c]LL 16A/]	.	(8.cc\L	.
16CJ 16FF/	16fJ 16A/	.	.	.
8CJ 8FF/	8fJ 8A/	.	.	.
.	.	.	16aa\Jk)	.
!!LO:PB:g=original
=16||	=16||	=16||	=16||	=16||
*	*ped	*	*	*
!	!	!LO:DY:rj	!	!LO:DY:rj
4F 4FF/	1ff 1cc 1a 1f	pp	[1aa [>1a	pp
4r	.	.	.	.
2r	.	.	.	.
=17	=17	=17	=17	=17
*	*	*	*rep	*
!LO:N:vis=2	!	!	!	!
2.ff> 2.a> 2.f>\	32ccc/LLL	.	1aa_ 1a_>	.
.	32cc/	.	.	.
.	32ccc/	.	.	.
.	32cc/	.	.	.
.	32ccc/	.	.	.
.	32cc/	.	.	.
.	32ccc/	.	.	.
.	[>32cc/JJJ	.	.	.
.	2.ccc 2.cc/]	.	.	.
[>4ff> [>4a> [>4f>\	.	.	.	.
*	*Xped	*	*Xrep	*
.	.	.	.	.
=18	=18	=18	=18	=18
*	*tremolo	*	*rep	*
*	*ped	*	*	*
2.ff>] 2.a>] 2.f>\]	32ccc#XLLL 32cc#X/	.	1aa] 1a]	.
.	32ccc# 32cc#/	.	.	.
.	32ccc# 32cc#/	.	.	.
.	32ccc# 32cc#/	.	.	.
.	32ccc# 32cc#/	.	.	.
.	32ccc# 32cc#/	.	.	.
.	32ccc# 32cc#/	.	.	.
.	32ccc#JJJ 32cc#/	.	.	.
*	*Xtremolo	*	*	*
!	!LO:N:vis=2	!	!	!
.	2.ccc# 2.cc#/	.	.	.
[>4ff> [>4a> [>4f>\	.	.	.	.
*	*Xped	*	*Xrep	*
.	.	.	.	.
=19	=19	=19	=19	=19
*	*tremolo	*	*	*
!LO:N:vis=2	!	!	!	!
2.ff>] 2.a>] 2.f>\]	32dddLLL 32dd/	.	2.aa 2.a/	.
.	32ddd 32dd/	.	.	.
.	32ddd 32dd/	.	.	.
.	32ddd 32dd/	.	.	.
.	32ddd 32dd/	.	.	.
.	32ddd 32dd/	.	.	.
.	32ddd 32dd/	.	.	.
.	32dddJJJ 32dd/	.	.	.
*	*Xtremolo	*	*	*
.	(2eee-X 2ee-X/	.	.	.
4A\	4ee- 4f#X/)	.	4ccc\	.
=20	=20	=20	=20	=20
*	*^	*	*	*
!	!	!LO:S:s=1:note:problem=note-level slur	!	!	!
1B-	2dd/	(>4f#X\	.	(2ccc\	.
!	!	!LO:N:vis=2	!	!	!
.	.	2.g\)	.	.	.
.	4dd-X/	.	.	4bb-\)	.
.	8cc/L	.	.	4aa\	.
.	8ff/J	.	.	.	.
=21	=21	=21	=21	=21	=21
!	!	!LO:S:s=1:note:problem=note-level slur	!	!	!
2c\	2ee/	(>8cc\L	.	(8aa\L	.
.	.	8b-\)	.	8gg\)	.
.	.	8qcc/	.	8qaa/	.
.	.	(>8b-\	.	(8gg\	.
.	.	8a\J)	.	8ff#X\J)	.
*tremolo	*	*	*	*	*
32cc>LLL 32c\	2b-/	2ryy	.	4gg\	.
32cc 32c\	.	.	.	.	.
32cc 32c\	.	.	.	.	.
32cc 32c\	.	.	.	.	.
32cc 32c\	.	.	.	.	.
32cc 32c\	.	.	.	.	.
32cc 32c\	.	.	.	.	.
32ccJJJ 32c\	.	.	.	.	.
*Xtremolo	*	*	*	*	*
4c\	.	.	.	4cc\	.
*	*v	*v	*	*	*
!!LO:LB:g=original
=22	=22	=22	=22	=22
1c	(8b-/L	.	([2cc\	.
.	8a/J)	.	.	.
.	8qb-/	.	.	.
.	8a/L	.	.	.
.	8g#X/J	.	.	.
.	4a/	.	8cc\L]	.
.	.	.	8ff\	.
.	4cc/	.	8aa\	.
.	.	.	8bb-\J)	.
=23	=23	=23	=23	=23
*	*^	*	*	*
*	*2\right	*	*	*	*
2.c\	(2ee-X/	2.f#X\	.	(8bb-\L	.
.	.	.	.	8aa\)	.
.	.	.	.	8qbb-/	.
.	.	.	.	8aa\	.
.	.	.	.	8gg#X\J	.
.	4dd/	.	.	4aa\	.
4Bn\	4g/)	4g\	.	4dd\	.
=24	=24	=24	=24	=24	=24
(2.B-X\	8ff/L	2.a-X\	.	2.dddTT\	.
.	8ee/J	.	.	.	.
.	8qgg/	.	.	.	.
.	8.ff/L	.	.	.	.
.	16ee/Jk	.	.	.	<
.	(4ff/	.	.	.	.
4A-X\)	4b-/)	4f\	.	8.ddd\L	.
.	.	.	.	(32ccc#X\LL	.
.	.	.	.	32ddd\JJJ)	[
*	*v	*v	*	*	*
=25	=25	=25	=25	=25
!	!LO:TX:b:t=P:problem=arpeggio między systemami	!	!	!
1B-: 1G:	2b-: 2g: 2e-X:/	sf	(8fff^\L	>
.	.	.	8eee-X\	.
.	.	.	8bb-\	.
.	.	.	8gg\J)	]
.	(8cc/L	.	(4ee-X\	.
.	8b-/	.	.	.
.	8g/	.	4dd\)	.
.	8d/J)	.	.	.
=26	=26	=26	=26	=26
!	!	!LO:DY:rj	!	!LO:DY:rj
(2G\	2b- (2e-X/	pp	(2dd-X\	pp
4F#X\	4a 4d/	.	4cc\	.
4Fn\)	4a-X 4d-X/	.	4bn\)	.
=27	=27	=27	=27	=27
*	*^	*	*	*
1C	4an/	4c\)	.	(8cc\L	.
.	.	.	.	8ff\	.
.	4f#X/	(>8e-X\L	.	8bb-\	.
.	.	8cc\J)	.	8aa\J)	.
.	(8cc/L	4g\	.	4dd\	.
.	8bn/J)	.	.	.	.
!	!LO:TUP:a:problem=klamra łukowa	!	!	!	!
.	12g/L	4ryy	.	4eett\	.
.	12a/	.	.	.	.
!	!LO:SIC:v:s=12b-/J	!	!	!	!
.	12b/J	.	.	.	.
.	.	.	.	16qqdd/LL	.
.	.	.	.	16qqee/JJ	.
!!LO:LB:g=original
=28	=28	=28	=28	=28	=28
1C 1FF	2a/	2f\	.	(8ff\L	.
.	.	.	.	8ee\	.
.	.	.	.	8ff\	.
.	.	.	.	8dd\J)	.
.	8qcc/	.	.	.	.
.	8b-/L	2e\	.	2cc\	.
.	8a/	.	.	.	.
.	8b-/	.	.	.	.
.	8g/J	.	.	.	.
.	.	.	.	(32qqee/LLL	.
.	.	.	.	32qqgg/JJJ)	.
=29	=29	=29	=29	=29	=29
1C 1FF	2a/	2f\	.	(8ff\L	.
.	.	.	.	8ee\	.
.	.	.	.	8.ff\	.
!	!	!	!	!LO:TUP:a	!
.	.	.	.	48dd\LL	.
.	.	.	.	48ee\	.
.	.	.	.	48dd\JJJ)	.
.	8qcc/	.	.	.	.
.	8b-/L	2e\	.	2cc\	.
.	8a/	.	.	.	.
.	8b-/	.	.	.	.
.	16a/L	.	.	.	.
.	16g#X/JJ	.	.	.	.
*	*v	*v	*	*	*
=30||	=30||	=30||	=30||	=30||
!	!	!	!LO:TX:a:i:t=Allegro moderato	!
8F 8C 8FF/	8a 8f 8c 8A/	.	(16cc\LL	.
.	.	.	16bn\	.
8r	8r	.	16cc\	.
.	.	.	16a\JJ	.
!	!	!	!LO:TX:t=P:problem=mixed beam	!
4r	4r	.	16ff\LL	.
.	.	.	16ee\	.
.	.	.	16ff\	.
.	.	.	16a/JJ)	.
!	!	!	!LO:TX:t=P:problem=mixed beam	!
2r	2r	.	(16aa\LL	.
.	.	.	16gg#X\	.
.	.	.	16aa\	.
.	.	.	16a/JJ	.
.	.	.	16ccc\LL	.
.	.	.	16ccc#X\	.
.	.	.	16ddd\	.
.	.	.	16ccc#\JJ)	.
=31	=31	=31	=31	=31
1D 1DD	1a 1f 1d	.	(16fff\LL	.
.	.	.	16eee\	.
.	.	.	16ddd\	.
.	.	.	16ccc#X\JJ	.
.	.	.	16ddd\LL	.
.	.	.	16bb-\	.
.	.	.	16aa\	.
.	.	.	16gg\JJ)	.
.	.	.	(16ff\LL	.
.	.	.	16ee\	.
.	.	.	16aa\	.
.	.	.	16gg\JJ	.
.	.	.	16ff\LL	.
.	.	.	16ee\	.
.	.	.	16dd\	.
.	.	.	16cc\JJ)	.
!!LO:PB:g=original
=32	=32	=32	=32	=32
2G\	2g 2f 2d/	.	(16bn\LL	.
.	.	.	16dd\	.
.	.	.	16ff\	.
.	.	.	16gg\JJ	.
.	.	.	16bbn\LL	.
.	.	.	16aa\	.
.	.	.	16gg\	.
.	.	.	16ff\JJ)	.
2C/	2g 2e 2c/	.	(16ee\LL	.
.	.	.	16eee\	.
.	.	.	16ggg\	.
.	.	.	16fff\JJ	.
.	.	.	16eee\LL	.
.	.	.	16ddd\	.
.	.	.	16ccc\	.
.	.	.	16bb-X\JJ)	.
=33	=33	=33	=33	=33
2C#X/	2ee 2a 2g/	.	16aa\LL	.
.	.	.	16ee\	.
.	.	.	16ff\	.
.	.	.	16gg\JJ	.
.	.	.	16aa\LL	.
.	.	.	16bb-\	.
.	.	.	16aa\	.
.	.	.	16gg\JJ	.
2D/	2dd 2a 2f/	.	16ff\LL	.
.	.	.	16gg\	.
.	.	.	16gg#X\	.
.	.	.	16aa\JJ	.
.	.	.	16fff\LL	.
.	.	.	16ddd\	.
.	.	.	16bbn\	.
.	.	.	16aa\JJ	.
=34	=34	=34	=34	=34
!	!LO:SIC:v:n=1:s=4bn	!	!	!
4E\	4b- 4g#X/	.	16gg#X\LL	.
.	.	.	16eee\	.
.	.	.	16bbn\	.
.	.	.	16ddd\JJ	.
4AA/	4dd#X 4cc 4f#X/	.	16ccc\LL	.
.	.	.	16aa\	.
!	!	!	!LO:SIC:v:s=16ff#\	!
.	.	.	16ff\	.
.	.	.	16dd#X\JJ	.
!	!LO:SIC:v:n=2:s=4bn	!	!	!
4E\	4ee 4b- 4g#/	.	16ee\LL	.
!	!	!	!LO:SIC:v:s=16ff#\	!
.	.	.	16ff\	.
.	.	.	16ee\	.
.	.	.	16ddn\JJ	.
4AA/	4cc 4f# 4d#X/	.	16cc\LL	.
!	!	!	!LO:SIC:v:s=16dd#\	!
.	.	.	16dd\	.
.	.	.	16ee\	.
!	!	!	!LO:SIC:v:s=16ff#\JJ	!
.	.	.	16ff\JJ	.
=35	=35	=35	=35	=35
4E\	4b- 4g 4c/	.	16gg\LL	.
.	.	.	16aa\	.
.	.	.	16bb-\	.
.	.	.	16ccc\JJ	.
4F\	4b- 4g 4d-X/	.	16ddd-X\LL	.
.	.	.	16bb-\	.
.	.	.	16gg\	.
.	.	.	16ff#X\JJ	.
(8E'\L	(8b-L 8g 8c'/	.	16gg\LL	.
.	.	.	16aa\	.
8F'\	8b- 8g 8d-'/	.	16bb-\	.
.	.	.	16ccc\JJ	.
8E'\	8b- 8g 8c'/	.	16ddd-\LL	.
.	.	.	16ccc\	.
8F'\J)	8b-J 8g 8d-'/)	.	16eee-X\	.
.	.	.	16ddd-\JJ	.
!!LO:LB:g=original
=36	=36	=36	=36	=36
*	*^	*	*	*
8E|\L	8ccL 8g|/	4ryy	.	16ccc\LL	.
.	.	.	.	16bbn\	.
8F#X|\	8ddn 8a|/	.	.	16dddn\	.
.	.	.	.	16ccc\JJ	.
8G|\	8ee 8b-|/	8ryy	.	16bb-X\LL	.
.	.	.	.	16aa\	.
!	!	!LO:S:s=1:note:problem=note-level slur	!	!	!
(16A\L	8ff/J	(>16cc\LL	.	16ccc\	.
16B-\JJ	.	16dd\JJ)	.	16bb-\JJ	.
8c\L)	8ee/L	8ee\	.	16aa\LL	.
.	.	.	.	16gg\	.
8c#X\J	8ee 8b- 8g/	8ryy	.	16bb-\	.
.	.	.	.	16aa\JJ	.
(8d\L	8dd 8a 8f/	4ryy	.	16ff\LL	.
.	.	.	.	16ee\	.
16e\L	8cc/J	.	.	16gg\	.
16f\JJ)	.	.	.	16ff\JJ	.
*	*v	*v	*	*	*
=37	=37	=37	=37	=37
8B-'\L	8ddL 8d/	.	16dd\LL	.
.	.	.	16ee\	.
8A'\J	8cc#XJ 8d/	.	16ff\	.
.	.	.	16ff#X\JJ	.
8B-^\L	8ddL 8d/	.	16aa\LL	.
.	.	.	16gg\	.
16A\L	16ccnL 16d/	.	16ff#\	.
16G\JJ	16b-/JJ	.	16gg\JJ	.
8F#X\L	8aL 8d|/	.	16aa\LL	.
.	.	.	16bb-\	.
8D\J	8ff#X 8a|/	.	16ccc\	.
.	.	.	16ccc\JJ	.
!LO:TX:t=P:problem=mixed beam	!	!	!	!
8G\L	8dd 8b-|/	.	16eee\LL	.
.	.	.	16ddd\	.
8BB-/J	8ggJ 8dd|/	.	16ccc\	.
.	.	pp	16ddd\JJ	pp
=38	=38	=38	=38	=38
*	*tremolo	*	*tremolo	*
16BBn/LL	32dddLLL 32gg 32ff\	.	32fffnLLL 32ffn\	.
.	32dd\	.	32fff 32ff\	.
16C/	32ddd 32gg 32ff\	.	32fff 32ff\	.
.	32dd\	.	32fff 32ff\	.
16D/	32ddd 32gg 32ff\	.	32fff 32ff\	.
.	32dd\	.	32fff 32ff\	.
16E/JJ	32ddd 32gg 32ff\	.	32fff 32ff\	.
.	32dd\	.	32fff 32ff\	.
16F\LL	32ddd 32gg 32ff\	.	32fff 32ff\	.
.	32dd\	.	32fff 32ff\	.
16E\	32ddd 32gg 32ff\	.	32fff 32ff\	.
.	32dd\	.	32fff 32ff\	.
16F\	32ddd 32gg 32ff\	.	32fff 32ff\	.
.	32dd\	.	32fff 32ff\	.
16F#X\JJ	32ddd 32gg 32ff\	.	32fff 32ff\	.
.	32dd\JJJ	.	32fff 32ff\	.
*	*rep	*	*	*
16G\LL	32dddLLL 32gg 32ff\	.	32fff 32ff\	.
.	32dd\	.	32fff 32ff\	.
16F#\	32ddd 32gg 32ff\	.	32fff 32ff\	.
.	32dd\	.	32fff 32ff\	.
16G\	32ddd 32gg 32ff\	.	32fff 32ff\	.
.	32dd\	.	32fff 32ff\	.
16G#X\JJ	32ddd 32gg 32ff\	.	32fff 32ff\	.
.	32dd\	.	32fff 32ff\	.
16A\LL	32ddd 32gg 32ff\	.	32fff 32ff\	.
.	32dd\	.	32fff 32ff\	.
16G#\	32ddd 32gg 32ff\	.	32fff 32ff\	.
.	32dd\	.	32fff 32ff\	.
16A\	32ddd 32gg 32ff\	.	32fff 32ff\	.
.	32dd\	.	32fff 32ff\	.
16Bn\JJ	32ddd 32gg 32ff\	.	32fff 32ff\	.
.	32dd\JJJ	.	32fffJJJ 32ff\	.
*	*Xrep	*	*	*
*	*Xtremolo	*	*Xtremolo	*
=39	=39	=39	=39	=39
8c'\L	8ccc 8cc\	.	(16fff\LL	.
.	.	.	16eee\	.
8A'\	(16a\LL	.	16fff\	.
.	16aa\JJ	.	16eee\JJ)	.
8B-X'\	16b-X\LL	.	(16ddd\LL	.
.	16bb-X\JJ	.	16ccc\	.
!	!LO:TX:t=P:problem=mixed beam	!	!	!
8F#X'\J	16f#X/LL	.	16ddd\	.
.	16ff#X\JJ	.	16ccc\JJ)	.
!LO:TX:t=P:problem=mixed beam	!LO:TX:t=P:problem=mixed beam	!	!	!
8G'\L	16g/LL	.	(16bb-\LL	.
.	16gg\JJ	.	16aa\	.
!	!LO:TX:t=P:problem=mixed beam	!	!	!
8C#X'/	16c#X/LL	.	16bb-\	.
.	16cc#X\JJ	.	16aa\JJ)	.
!	!LO:TX:t=P:problem=mixed beam	!	!	!
8D'/	16d/LL	.	(16gg\LL	.
.	16dd\JJ	.	16ff\	.
8AA'/J	16A/LL	.	16aa\	.
.	16a/JJ)	.	16ff\JJ)	.
!!LO:LB:g=original
=40	=40	=40	=40	=40
*tremolo	*tremolo	*	*	*
8BB-L 8BBB-/	16gLL 16f 16d/	.	(16dd\LL	.
.	16dd/	.	16ee\JJ)	.
8BB- 8BBB-/	16g 16f 16d/	.	(16ee\LL	<
.	16dd/	.	16ff\JJ)	.
8BB- 8BBB-/	16g 16f 16d/	.	(16ff\LL	.
.	16dd/	.	16ff#X\JJ)	.
8BB- 8BBB-/	16g 16f 16d/	.	(16ff#\LL	.
.	16dd/JJ	.	16gg\JJ)	.
*	*rep	*	*	*
!	!LO:TX:b:i:t=cres-cen-d:problem=dynamics with extention lines	!LO:HP:i:t=cres-cen-d	!	!
8BB- 8BBB-/	16gLL 16f 16d/	<	(16gg\LL	.
.	16dd/	.	16aa\JJ)	.
8BB- 8BBB-/	16g 16f 16d/	.	(16aa\LL	.
.	16dd/	.	16bb-\JJ)	.
8BB- 8BBB-/	16g 16f 16d/	.	(16bb-\LL	.
.	16dd/	.	16ccc\JJ)	.
8BB-J 8BBB-/	16g 16f 16d/	.	(16ccc\LL	.
.	16dd/JJ	.	16ccc#X\JJ)	[
*	*Xrep	*	*	*
=41	=41	=41	=41	=41
16BBB-/LL	16gLL 16f 16d/	.	(16ccc#X\LL	.
16BB-/	16dd/	.	16ddd\JJ)	.
16BBB-/	16g 16f 16d/	.	(16ddd\LL	.
16BB-/	16dd/	.	16eee\JJ)	.
16BBB-/	16g 16f 16d/	.	(16eee\LL	.
16BB-/	16dd/	.	16fff\JJ)	.
16BBB-/	16g 16f 16d/	.	(16fff\LL	.
16BB-/	16dd/	.	16fff#X\JJ)	.
16BBB-/	16g 16f 16d/	.	(16ggg\LL	.
16BB-/	16dd/	.	16fffn\	.
16BBB-/	16g 16f 16d/	.	16eee\	.
16BB-/JJ	16dd/JJ	.	16ddd\JJ)	.
*Xtremolo	*Xtremolo	*	*	*
!	!LO:TX:t=P:problem=mixed beam	!	!	!
8CC'/L	8gL 8e^/	[	(16cccn\LL	.
.	.	.	16bb-\	.
8CJ 8CC'/	8ggJ 8ee 8cc 8g^\	.	16ddd\	.
.	.	.	16ccc\JJ)	.
=42	=42	=42	=42	=42
!	!	!LO:DY:rj	!	!LO:DY:rj
8FFL 8FFF^/	8aaL 8ff 8cc 8a^\	f	16aa^\LL	f
.	.	.	16gg\	.
8AA 8AAA^/	8ff 8cc 8f^\	.	16ff\	.
.	.	.	16ee\JJ	.
8BB- 8BBB-^/	8dd 8b- 8f^\	.	16ee^\LL	.
.	.	.	16dd\	.
8CJ 8CC^/	8b-J 8g 8e^\	.	16cc\	.
.	.	.	16b-\JJ	.
8D 8DD^/	8aL 8f 8d^/	.	16a^/LL	.
.	.	.	16g/	.
8FL 8FF^\	8f 8c^/	.	16f/	.
.	.	.	16e/JJ	.
8G 8GG^\	8c#X 8B-X^/	.	16e/LL	.
.	.	.	16g/	.
8G#XJ 8GG#X^\	8fJ 8d 8Bn^/	.	16f/	.
.	.	.	16d/JJ	.
=43	=43	=43	=43	=43
*ped	*	*	*	*
8A 8F 8AA^\	8c^/	.	16c^/LL	.
.	.	.	16d/	.
8r	8r	.	16f/	.
.	.	.	16a/JJ	.
16c^\LL	16cc^/LL	.	4cc^\	.
16A\	16a/	.	.	.
16G\	16g/	.	.	.
16F\JJ	16f/JJ	.	.	.
4A 4F 4C^/	4c^/	.	16c^/LL	.
.	.	.	16d/	.
.	.	.	16f/	.
.	.	.	16a/JJ	.
!LO:TX:t=P:problem=mixed beam	!	!	!	!
16f>\LL	16ff^/LL	.	4ff 4a^\	.
16d>\	16dd/	.	.	.
16c/	16cc/	.	.	.
16A/JJ	16a/JJ	.	.	.
!!LO:PB:g=original
=44	=44	=44	=44	=44
4c 4A 4F^\	4f^/	.	16f/LL	.
.	.	.	16a/	.
.	.	.	16cc/	.
.	.	.	16ff/JJ	.
16a^\LL	16aa^/LL	.	4aa 4a^\	.
16f\	16ff/	.	.	.
16c\	16cc/	.	.	.
16A\JJ	16a/JJ	.	.	.
4c^\	4a 4f^/	.	16a\LL	.
.	.	.	16cc\	.
.	.	.	16ff\	.
.	.	.	16aa\JJ	.
16cc>^\LL	16ccc^>/LL	.	4ccc 4cc^\	.
16a>\	16aa/	.	.	.
16f>\	16ff/	.	.	.
16c>\JJ	16cc/JJ	.	.	.
=45	=45	=45	=45	=45
!	!	!LO:DY:t=sff	!	!
4c 4C\	4cc 4a 4f/	sf	16cc\LL	.
.	.	.	16ff\	.
.	.	.	16aa\	.
.	.	.	16ccc\JJ	.
*tremolo	*	*	*	*
16cLL 16A 16F 16C\	16aaLL 16ff 16cc 16a'\	.	[4fff^\	.
16c 16A 16F 16C\	16aa 16ff 16cc 16a'\	.	.	.
16c 16A 16F 16C\	16aa 16ff 16cc 16a'\	.	.	.
16cJJ 16A 16F 16C\	16aaJJ 16ff 16cc 16a'\	.	.	.
*Xtremolo	*	*	*	*
8cL 8A 8F 8C\	8cccL 8aa 8ff 8cc\	.	8fff\L]	.
*	*Xped	*	*	*
.	.	.	.	.
8d\J	(8gg#XJ 8ff 8dd^\	.	(16bbn\L	.
.	.	.	16ddd\JJ)	.
4c\	16aaLL 16cc\)	.	8ccc\L	.
.	16ff\	.	.	.
.	16cc\	.	(16ff\L	.
.	16a\JJ	.	16aa\JJ)	.
=46	=46	=46	=46	=46
*	*tremolo	*	*	*
8c\L	16eeLL 16b- 16g^/	.	1ggTT	.
.	16ee 16b- 16g/	.	.	.
(8c^\	16ee 16b- 16g/	.	.	.
.	16eeJJ 16b- 16g/	.	.	.
8c#X\)	16ee-XLL 16b- 16g/	.	.	.
.	16ee- 16b- 16g/	.	.	.
(8c#^\J	16ee- 16b- 16g/	.	.	.
.	16ee-JJ 16b- 16g/	.	.	.
8d\L)	16ddLL 16b- 16g/	.	.	.
.	16dd 16b- 16g/	.	.	.
(8d^\	16dd 16b- 16g/	.	.	.
.	16ddJJ 16b- 16g/	.	.	.
8e-X\)	16dd-XLL 16b- 16g/	.	.	.
.	16dd- 16b- 16g/	.	.	.
(8e-^\J	16dd- 16b- 16g/	.	.	.
.	16dd-JJ 16b- 16g/	.	.	.
*	*Xtremolo	*	*	*
=47	=47	=47	=47	=47
8en\L)	16ccLL 16b-^/	.	2ggTTT\	.
.	16g/	.	.	.
8e-X\	16cc#X 16b-^/	.	.	.
.	16g/	.	.	.
8d\	16dd 16b-^/	.	.	.
.	16g/	.	.	.
8d-X\J	16ee-X 16b-^/	.	.	.
.	16g/JJ	.	.	.
.	.	.	16qqff#X/LL	.
.	.	.	16qqgg/JJ	.
8c\	8eenL 8b-^\	.	8ccc\L	.
8cL 8C^\	8ffn 8cc#X 8b- 8g^\	.	8ccc#X^\	.
8c 8C^\	8gg 8dd 8b- 8g^\	.	8ddd^\	.
!	!LO:SIC:v:n=4:s=8ccnJ	!	!	!
8cJ 8C^\	8bb-J 8gg 8ee 8cc#^\	.	8eee^\J	.
=48	=48	=48	=48	=48
*ped	*	*	*	*
*tremolo	*tremolo	*	*	*
!	!	!LO:DY:rj	!	!
32CLLL 32FF/	32aaLLL 32ff 32cc\	ff	2fff\	.
32F/	32a\	.	.	.
32C 32FF/	32aa 32ff 32cc\	.	.	.
32F/	32a\	.	.	.
32C 32FF/	32aa 32ff 32cc\	.	.	.
32F/	32a\	.	.	.
32C 32FF/	32aa 32ff 32cc\	.	.	.
32F/	32a\	.	.	.
32C 32FF/	32aa 32ff 32cc\	.	.	.
32F/	32a\	.	.	.
32C 32FF/	32aa 32ff 32cc\	.	.	.
32F/	32a\	.	.	.
32C 32FF/	32aa 32ff 32cc\	.	.	.
32F/	32a\	.	.	.
32C 32FF/	32aa 32ff 32cc\	.	.	.
32F/JJJ	32a\JJJ	.	.	.
32CLLL 32FF/	32aaLLL 32ff 32cc\	.	4ccc\	.
32F/	32a\	.	.	.
32C 32FF/	32aa 32ff 32cc\	.	.	.
32F/	32a\	.	.	.
32C 32FF/	32aa 32ff 32cc\	.	.	.
32F/	32a\	.	.	.
32C 32FF/	32aa 32ff 32cc\	.	.	.
32F/	32a\	.	.	.
32C 32FF/	32aa 32ff 32cc\	.	4aa\	.
32F/	32a\	.	.	.
32C 32FF/	32aa 32ff 32cc\	.	.	.
32F/	32a\	.	.	.
32C 32FF/	32aa 32ff 32cc\	.	.	.
32F/	32a\	.	.	.
32C 32FF/	32aa 32ff 32cc\	.	.	.
32F/JJJ	32a\JJJ	.	.	.
!!LO:LB:g=original
=49	=49	=49	=49	=49
*rep	*	*	*	*
32CLLL 32FF/	32ffLLL 32a 32f\	.	(8ddd\L	.
32F/	32ff 32a 32f\	.	.	.
32C 32FF/	32ff 32a 32f\	.	.	.
32F/	32ff 32a 32f\	.	.	.
32C 32FF/	32ff 32a 32f\	.	8ccc\	.
32F/	32ff 32a 32f\	.	.	.
32C 32FF/	32ff 32a 32f\	.	.	.
32F/	32ffJJJ 32a 32f\	.	.	.
32C 32FF/	32ccLLL 32a 32f/	.	8aa\)	.
32F/	32cc 32a 32f/	.	.	.
32C 32FF/	32cc 32a 32f/	.	.	.
32F/	32cc 32a 32f/	.	.	.
32C 32FF/	32cc 32a 32f/	.	8ee\J	.
32F/	32cc 32a 32f/	.	.	.
32C 32FF/	32cc 32a 32f/	.	.	.
32F/JJJ	32ccJJJ 32a 32f/	.	.	.
32CLLL 32FF/	32aLLL 32f 32c/	.	(8gg\L	.
32F/	32a 32f 32c/	.	.	.
32C 32FF/	32a 32f 32c/	.	.	.
32F/	32a 32f 32c/	.	.	.
32C 32FF/	32a 32f 32c/	.	8ff\	.
32F/	32a 32f 32c/	.	.	.
32C 32FF/	32a 32f 32c/	.	.	.
32F/	32aJJJ 32f 32c/	.	.	.
32C 32FF/	32cLLL 32A/	.	8cc\)	.
32F/	32c 32A/	.	.	.
32C 32FF/	32c 32A/	.	.	.
32F/	32c 32A/	.	.	.
32C 32FF/	32c 32A/	.	8a\J	.
32F/	32c 32A/	.	.	.
32C 32FF/	32c 32A/	.	.	.
32F/JJJ	32cJJJ 32A/	.	.	.
*Xrep	*	*	*	*
*Xtremolo	*Xtremolo	*	*	*
=50||	=50||	=50||	=50||	=50||
*k[b-e-]	*k[b-e-]	*	*k[b-e-]	*
*M6/8	*M6/8	*	*M6/8	*
*	*Xped	*	*	*
!	!	!	!LO:TX:a:i:t=Allegro.	!
8F 8FF/	8f 8c 8A/	.	16f/LL	.
.	.	.	16a/	.
8r	8r	.	16cc/	.
.	.	.	16b-/	.
8r	8r	.	16a/	.
.	.	.	16cc/JJ	.
4r	4r	.	16ee-\LL	.
.	.	.	16dd\	.
.	.	.	16cc\	.
.	.	.	16ff\	.
8r	8r	.	16aa\	.
.	.	.	16gg\JJ	.
=51	=51	=51	=51	=51
*	*^	*	*	*
2.r	(4ee- (4cc 4a^/	4.f\	.	16ff^\LL	.
.	.	.	.	16aa\	.
.	.	.	.	16ccc\	.
.	.	.	.	16bb-\	.
.	8b-) 8g/)	.	.	16aa\	.
.	.	.	.	16gg\JJ	.
*	*rep	*rep	*	*rep	*
.	(4ee- (4cc 4a^/	4.f\	.	16ff^\LL	.
.	.	.	.	16aa\	.
.	.	.	.	16ccc\	.
.	.	.	.	16bb-\	.
.	8b-) 8g/)	.	.	16aa\	.
.	.	.	.	16gg\JJ	.
*	*Xrep	*Xrep	*	*Xrep	*
*	*v	*v	*	*	*
=52	=52	=52	=52	=52
8f>\	8ee- 8cc 8a/	.	16aa\LL	.
.	.	.	16ccc\	.
16e-^\LL	16ee-^\LL	.	16eee-^\	.
16d\	16dd\	.	16ddd\	.
16c\	16cc\	.	16ccc\	.
16B-\JJ	16b-\JJ	.	16bb-\JJ	.
16A^\LL	16a^/LL	.	16aa^\LL	.
16B-\	16b-/	.	16bb-\	.
16c\	16cc/	.	16ccc\	.
16B-\	16b-/	.	16bb-\	.
16A\	16a/	.	16aa\	.
16G\JJ	16g/JJ	.	16gg\JJ	.
=53	=53	=53	=53	=53
16F#X^\LL	16f#X^/LL	.	16ff#X^\LL	.
16G\	16g/	.	16gg\	.
16A\	16a/	.	16aa\	.
16G\	16g/	.	16gg\	.
16Fn\	16fn/	.	16ffn\	.
16E-\JJ	16e-/JJ	.	16ee-\JJ	.
16D\LL	16d/LL	.	16dd\LL	.
16E-\J	16e-/J	.	16ee-\J	.
8C'\J	8c'/J	.	8cc|\	.
8F 8FF/	8ee- 8cc 8f/	sf	8ffnJ 8a^\	.
!!LO:LB:g=original
=54	=54	=54	=54	=54
8BB- 8BBB-/	8dd 8b- 8f/	.	8bb- 8b- 8d\	.
!	!	!LO:DY:rj	!	!
8dL 8B- 8F\	8r	p	8r	.
!LO:N:head=invis	!	!	!	!
8dJ 8B- 8F\	8r	.	8r	.
!LO:TX:t=P:problem=mixed beam	!	!	!	!
8BB-/L	8r	.	4r	.
8B- 8F\	(8fL 8d/	.	.	.
8B-J 8F\	8d/J)	.	8r	.
=55	=55	=55	=55	=55
!LO:TX:t=P:problem=mixed beam	!	!	!	!
8BB-/L	8r	.	2.r	.
8B- 8F\	(8b-L 8d/	.	.	.
8B-J 8F\	8f/J)	.	.	.
*rep	*	*	*	*
!LO:TX:t=P:problem=mixed beam	!	!	!	!
8BB-/L	8r	.	.	.
8B- 8F\	(16dd/LL	.	.	.
.	16f/	.	.	.
8B-J 8F\	16b-/	.	.	.
.	16dd/JJ)	.	.	.
*Xrep	*	*	*	*
=56	=56	=56	=56	=56
!	!	!	!	!LO:DY:rj
8d^\L	8ffL 8f^/	.	16dd\LL	p
.	.	.	16ff\	.
8c#X'\	8een 8eny'/	.	16een\	<
.	.	.	16ff\	.
8cn'\J	8ee-XJ 8e-'/	.	16gg\	.
.	.	.	16aa\JJ	.
16B-\LL	16ddLL 16f/	.	16bb-\LL	.
16A\J	16cc/J	.	16aa\	.
8G^\	8b-^/	.	16bb-\	.
.	.	.	16ccc\	.
16F\L	16a/L	.	16ddd\	[
16E-\JJ	16g/JJ	.	16eee-\JJ	.
=57	=57	=57	=57	=57
8D|\L	8f|/L	<	(16fff\LL	f
.	.	.	16ddd\JJ)	.
8F|\	8b-|/	.	(16ddd\LL	.
.	.	.	16bb-\JJ)	.
8B-|\J	8dd|/J	[	(16bb-\LL	.
.	.	.	16ff\JJ)	.
!LO:TX:t=P:problem=mixed beam	!	!LO:DY:rj	!	!
8BB-^/L	8ee-L 8b- 8g^/	f	(16gg\LL	.
.	.	.	16bb-\JJ)	.
8B-^\J	8ddJ 8b- 8f^/	.	(16ff\LL	>
.	.	.	16een\	.
8r	8r	.	16ee-X\	.
.	.	.	16dd\JJ)	]
=58	=58	=58	=58	=58
!	!	!	!	!LO:DY:t=p.
(16f^\LL	8b-L 8g/	.	(16dd\LL	p
!	!	!	!LO:TX:b:i:t=grazioso	!
16en\J)	.	.	16cc\JJ)	.
8e\J	8b- 8g/	.	(16cc\LL	.
.	.	.	16bb-\JJ)	.
8C/	8b-J 8g 8c/	.	(16bb-\LL	.
.	.	.	16een\JJ)	.
!	!	!LO:DY:rj	!	!
16FLL 16FF^/	16b-LL 16f 16d^/	ff	8.gg^\L	.
!LO:N:head=invis	!	!	!	!
16FJ 16FF/	16fJ 16d/	.	.	.
!LO:N:head=invis	!	!	!	!
8FJ 8FF/	8ddJ 8f 8d/	.	.	.
.	.	.	16ff\L	.
!LO:N:vis=16	!LO:N:vis=16	!	!	!
8r	8r	.	16ee-X\	.
.	.	.	16dd\JJ	.
!!LO:PB:g=original
=59	=59	=59	=59	=59
4F\	8r	.	(16bn\LL	.
.	.	.	16cc\	.
.	8aL 8f 8e- 8c/	.	16aa\	.
.	.	.	16gg\)	.
!	!LO:N:head=invis	!	!	!
8r	8aJ 8f 8e- 8c/	.	(16ee-X\	.
.	.	.	16cc\JJ)	.
4B-\	8r	.	(16cc#X\LL	.
.	.	.	16dd\	.
.	8fL 8d/	.	16ff\	.
.	.	.	16a\)	.
!	!	!	!LO:SIC:v:s=(16b-\	!
8r	8b-J 8f 8d/	.	(16b\	.
.	.	.	16dd\JJ)	.
=60	=60	=60	=60	=60
8B- 8BB-\	16b-LL 16d/	.	16gg\LL	.
.	16f/JJ	.	16ff\	.
8c#X\L	8fL 8en|/	.	16een\	<
.	.	.	16ff\	.
8cn\J	8fJ 8e-X|/	.	16gg\	.
.	.	.	16aa\JJ	.
(16B-\LL	(16d/LL	.	16bb-\LL	.
16c\J	16e-/J	.	16aa\	.
8d\)	8f/)	.	16bb-\	.
.	.	.	16ccc\	[
8B-'\J	8gJ 8d'/	.	16ddd\	.
.	.	.	16eeen\JJ	.
=61	=61	=61	=61	=61
8A\L	8gL 8c#X'/	.	(16ggg^\LL	.
.	.	.	16fff\JJ)	.
8d\	8f 8d'/	.	(16fff\LL	.
.	.	.	16ddd\JJ)	.
8B-\J	8b-J 8d'/	.	16ddd\LL	.
.	.	.	16bb-\JJ	.
8B-L 8BB-\	(16c#^/LL	.	16aa\LL	.
.	16d/	.	16bb-\	.
8d 8B-'\	16f#X/)	.	16ddd\	.
.	16a/J	.	16ccc\	.
8dJ 8B-'\	8g/J	.	16bb-\	.
.	.	.	16aa\JJ	.
=62	=62	=62	=62	=62
(4.c 4.C\	8r	.	(16gg\LL	.
.	.	.	16eeen\JJ)	.
.	8b-L 8g/	.	16eee\LL	.
.	.	.	16ddd\	.
.	8b-J 8g/	.	16ccc\	.
.	.	.	16bb-\JJ	.
.	.	.	8qccc/	.
8d'\L)	8aL 8f/	.	(16bb-\LL	.
.	.	.	16aa\JJ)	.
.	.	.	8qaa/	.
8A'\	8a 8c#X/	.	(16gg\LL	.
.	.	.	16ff\JJ)	.
.	.	.	8qff/	.
8Bn'\J	8gJ 8f 8d/	.	16een\LL	.
.	.	.	16dd\JJ	.
!!LO:LB:g=original
=63	=63	=63	=63	=63
!LO:TX:t=P:problem=mixed beam	!	!	!	!
(8c^\L	8ccL 8a^/	.	(16cc\LL	.
.	.	.	16dd\	.
8C/J	(16bnL 16g#X/	.	16dd#X\	.
.	16b-XJ 16gn/)	.	16een\	.
16d\LL	(8b-J (8g^/	.	16aa\	.
16e-\JJ	.	.	16gg\JJ)	.
!LO:TX:t=P:problem=mixed beam	!	!	!	!
8f'>\L)	8a/L))	.	8ff\L	.
8FJ 8FF/	8ffJ 8cc 8a 8f^/	.	8ffJ 8a^\	.
8r	8r	.	8r	.
.	.	ff	.	ff
=64	=64	=64	=64	=64
*	*ped	*	*	*
8D-X 8DD-X/	(16ddd-XLL 16ff 16dd-X^\	.	16fff^\LL	.
.	16aa-X\JJ)	.	16eee-X\JJ	.
!LO:SIC:v:n=2:s=4A-	!	!	!LO:TX:b:t=A:color=red	!
4d-X 4A 4F 4D-^\	4aa- 4ff 4dd-^\	.	4ddd-X^\	.
*	*Xped	*	*	*
.	.	.	.	.
*	*ped	*	*	*
8GG-X 8GGG-y/	(16bb-LL 16dd- 16b-\	.	16ddd-^\LL	.
.	16aa-\JJ)	.	16ccc\JJ	.
4d- 4B- 4G-y 4D-^\	4gg-X 4dd- 4b-^\	.	4bb-^\	.
*	*Xped	*	*	*
.	.	.	.	.
=65	=65	=65	=65	=65
!LO:SIC:v:s=8AA-/L	!	!	!	!
!LO:TX:t=P:problem=mixed beam	!	!	!LO:TX:b:t=B:color=red	!
8AA/L	16aa-XLL 16cc^\	.	16ccc^\LL	.
.	16gg-X\JJ	.	16bb-\JJ	.
!LO:SIC:v:n=2:s=8A-\	!	!	!	!
8c 8A\	8ee-L 8cc'\	.	8aa-X\L	.
!LO:SIC:v:n=2:s=8A-\	!LO:SIC:v:n=2:s=8g-'\	!	!	!
8e-J 8A\	8ccJ 8g'\	.	(16ee-\L	.
.	.	.	16gg-X\JJ)	.
.	.	.	8qgg-/	.
!	!LO:SIC:v:n=1:s=8dd-L	!	!	!
8D-XL 8DD-X/	8ddL 8f/	.	16ff\LL	.
.	.	.	16een\JJ	.
8D-/	8cc 8f/	.	4ff\	.
8D-/J	8bnJ 8f/	.	.	.
.	.	.	.	p
=66	=66	=66	=66	=66
4.Dn 4.DDn/	8b-XL 8f/	.	(16ff\LL	.
.	.	.	16bb-\JJ)	.
.	8b- 8f 8B-/	.	(16bb-\LL	.
.	.	.	16ddd\JJ)	.
.	8b-J 8f 8B-/	.	(16ddd\LL	.
.	.	.	16fff\JJ)	.
8C 8CC/	8a 8f 8c'/	.	16fff\LL	.
.	.	.	16aa\JJ	.
4C/	4a 4f 4c^/	.	8.ccc^\L	.
.	.	.	16ddd\Jk	.
!!LO:LB:g=original
=67	=67	=67	=67	=67
4C 4CC/	8r	.	16ccc\LL	.
.	.	.	16bb-\	.
.	8b-L 8g 8en 8c/	.	16gg\	.
.	.	.	16aa\	.
!	!LO:N:head=invis	!	!	!
8r	8b-J 8g 8e 8c/	.	16bb-\	.
.	.	.	16ccc\JJ	.
4F 4FF/	8r	.	16aa\LL	.
.	.	.	16een\	.
.	8aL 8f 8c/	.	16ff\	.
.	.	.	16aa\	.
8r	8ffJ 8f/	.	16ccc\	.
.	.	.	16fff\JJ	.
=68	=68	=68	=68	=68
!	!	!LO:DY:rj	!	!LO:DY:rj
*	*yped	*	*	*
8D-Xyy 8DD-X/yy	(y16ddd-XLLyy 16ffyy 16dd-X^\yy	ffy	16fff^\LLyy	ffy
.	16aa-X\JJ)yy	.	16eee-X\JJyy	.
!LO:SIC:v:n=2:s=4A-	!	!	!LO:TX:b:t=A	!
4d-Xyy 4Ayy 4Fyy 4D-^\yy	4aa-yy 4ffyy 4dd-^\yy	.	4ddd-X^\yy	.
*	*yXped	*	*	*
.	.	.	.	.
*	*yped	*	*	*
8GG-Xyy 8GGG-y/yy	(y16bb-LLyy 16dd-yy 16b-\yy	.	16ddd-^\LLyy	.
.	16aa-\JJ)yy	.	16ccc\JJyy	.
4d-yy 4B-yy 4G-yyy 4D-^\yy	4gg-Xyy 4dd-yy 4b-^\yy	.	4bb-^\yy	.
*	*yXped	*	*	*
.	.	.	.	.
=69	=69	=69	=69	=69
!LO:SIC:v:s=8AA-/L	!	!	!	!
!LO:TX:t=P:problem=mixed beam	!	!	!LO:TX:b:t=B	!
8AA/Lyy	16aa-XLLyy 16cc^\yy	.	16ccc^\LLyy	.
.	16gg-X\JJyy	.	16bb-\JJyy	.
!LO:SIC:v:n=2:s=8A-\	!	!	!	!
8cyy 8A\yy	8ee-Lyy 8cc'\yy	.	8aa-X\Lyy	.
!LO:SIC:v:n=2:s=8A-\	!LO:SIC:v:n=2:s=8g-'\	!	!	!
8e-Jyy 8A\yy	8ccJyy 8g'\yy	.	(y16ee-\Lyy	.
.	.	.	16gg-X\JJ)yy	.
.	.	.	8qgg-/yy	.
!	!LO:SIC:v:n=1:s=8dd-L	!	!	!
8D-XLyy 8DD-X/yy	8ddLyy 8f/yy	.	16ff\LLyy	.
.	.	.	16een\JJyy	.
8D-/yy	8ccyy 8f/yy	.	4ff\yy	.
8D-/Jyy	8bnJyy 8f/yy	.	.	.
=70	=70	=70	=70	=70
8Dn 8DD/	8b-XL 8f/	.	(16ff\LL	.
.	.	.	16bb-\JJ)	.
8dL 8B- 8F\	8ff 8b- 8f/	.	(16bb-\LL	.
.	.	.	16ddd\JJ)	.
!LO:N:head=invis	!LO:N:head=invis	!	!	!
8dJ 8B- 8F\	8ffJ 8b- 8f/	.	(16ddd\LL	.
.	.	.	16fff\JJ)	.
8E- 8EE-/	8ee- 8b- 8g\	.	(16fff\LL	.
.	.	.	16gg\JJ)	.
4c 4G 4E-^\	8.ggL 8.ee- 8.g^\	.	8.eee-^\L	.
.	16ffJk 16dd\	.	16ddd\Jk	.
=71	=71	=71	=71	=71
.	8qff/	.	8qddd/	.
16fLL 16F\	16ee-LL 16cc 16a/	.	16ccc\LL	.
16fJJ 16F\	16ddJJ 16bn 16g#X/	.	16bbn\JJ	.
!LO:TX:t=P:problem=mixed beam	!	!	!	!
8fL 8F\	8ee-L 8cc 8a/	.	8ccc\L	.
!	!	!	!	!LO:DY:rj
8FJ 8FF\	8ee-J 8cc 8a 8f/	f	(8fff^\J	f
!	!LO:SIC:v:n=2:s=8b-	!	!	!
!LO:TX:t=P:problem=mixed beam	!LO:TX:t=P:problem=mixed beam	!	!	!
8B-L 8BB-/	8ddL 8b 8f/	.	8bb|\L)	.
!	!LO:SIC:v:n=4:s=8b-^\	!LO:DY:t=sff	!	!
8BB-J 8BBB-/	8bb-J 8ff 8dd 8b^>\	sf	8bbJ 8b- 8d^\	.
8r;	8r;	.	8r;	.
=72||	=72||	=72||	=72||	=72||
!	!	!LO:DY:rj:t=p.	!	!LO:DY:rj:t=p.
16b->\LL	16bb-/LL	p	(16bb-\LL	p
!	!LO:TX:b:i:t=legier.	!	!LO:TX:b:i:t=legier.	!
16a>\JJ	16aa/J	.	16aa\J)	.
8b->\	8bb-/J	.	8bb-|\J	.
!	!LO:TX:a:t=Col V.	!	!	!
(y16a>\LLyy	(y16aa/LLyy	.	(16aa\LL	.
16g#X>\JJ)yy	16gg#X/JJ)yy	.	16gg#X\JJ)	.
8a>'\yy	8aa'/yy	.	8aa|\	.
(y16en>\LLyy	(y16een/LLyy	.	(16een\LL	.
!LO:SIC:v:s=16gn\J)	!LO:SIC:v:s=16ggn\J)	!	!LO:SIC:v:s=16ggn\J)	!
16g#>\J)yy	16gg#/J)yy	.	16gg#\J)	.
8f>'\Jyy	8ff'/Jyy	.	8ff|\J	.
=73	=73	=73	=73	=73
!	!	!	!LO:TX:t=P:problem=mixed beam	!
(y16c#X>\LLyy	(y16cc#X/LLyy	.	(16cc#X\LL	.
16en>\J)yy	16een/J)yy	.	16een\J)	.
8d>|\yy	8dd|/yy	.	8dd|\	.
16F>\Lyy	16f/Lyy	.	16f/L	.
16G>\JJyy	16g/JJyy	.	16g/JJ	.
8A\	16aLL 16f/	.	4a;/	.
.	16gJJ 16en/	.	.	.
4A;\	4e 4c#X;/	.	.	.
!	!	!	!LO:TUP:b	!
.	.	.	24a/LL	.
.	.	.	24a/	.
.	.	.	24a/JJ	.
*kcancel	*kcancel	*	*kcancel	*
!!LO:PB:g=original
=74||	=74||	=74||	=74||	=74||
*k[f#c#]	*k[f#c#]	*	*k[f#c#]	*
!	!	!	!LO:TX:b:t=C:color=red:rj	!
!	!	!	!LO:TX:a:t=Sola.:rj	!
!LO:TX:b:t=A=:color=red:rj	!	!	!LO:TX:t=P:problem=kolejność znaków f# cc#	!
8DL 8DD/	8f# 8d/	.	16a/LL	.
.	.	.	32r	.
.	.	.	(32f#/K	.
8AA@/	8f#L 8d 8A/	.	16dd/)	.
.	.	.	32r	.
.	.	.	(32a/K	.
8FF#@/J	8aJ 8f# 8d/	.	16ff#/)	.
.	.	.	32r	.
.	.	.	(32dd^/JJk	.
4D@ 4DD@/	8r	.	16bb\)	.
.	.	.	16r	.
.	8f#L 8d 8A/	.	8..aa^\L	.
8r	8f#J 8d 8A/	.	.	.
.	.	.	(32ff#^\Jkk	.
=75	=75	=75	=75	=75
!	!	!	!LO:TX:b:t=D:color=red	!
4AA/	8r	.	16aa\)	.
.	.	.	16r	.
.	8gL 8e 8c# 8A/	.	8..gg^\L	.
!	!LO:N:head=invis	!	!	!
8r@	8gJ 8e 8c# 8A/	.	.	.
.	.	.	(32cc#\Jkk	.
4D\	8r	.	16ee\)	.
.	.	.	16r	.
.	8f#L 8d 8A/	.	8..dd^\L	.
!	!LO:N:head=invis	!	!	!
8r	8f#J 8d 8A/	.	.	.
.	.	.	(32ccc#^\Jkk	.
=76	=76	=76	=76	=76
!	!	!	!LO:TX:b:t=E:color=red	!
4GG/	8r	.	16eee\)	.
.	.	.	16r	.
.	8gL 8d 8B/	.	8.ddd^\L	.
!	!LO:N:head=invis	!	!	!
8r	8gJ 8d 8B/	.	.	.
.	.	.	16bb\Jk	.
!	!	!	!LO:TUP:a:problem=klamra łukowa	!
4AA/	8r	.	24bb\LL	.
.	.	.	24ccc#\	.
.	.	.	24bb\JJ	.
.	8f#L 8d 8A/	.	(16aa\LL	.
.	.	.	16ddd\J)	.
!	!LO:N:head=invis	!	!	!
8r	8f#J 8d 8A/	.	(8ff#^\J	.
=77	=77	=77	=77	=77
4AA/	8r	.	16aa\)	.
.	.	.	16r	.
.	8gL 8e 8c# 8A/	.	8.gg^\L	.
!	!LO:N:head=invis	!	!	!
8r	8gJ 8e 8c# 8A/	.	.	.
.	.	.	16cc#\Jk	.
!	!	!	!LO:TUP:a:problem=klamra łukowa	!
4D\	8r	.	24dd\LL	.
.	.	.	24ff#\	.
.	.	.	24ee\JJ	.
.	8f#L 8d 8A/	.	(16dd\LL	.
.	.	.	16ff#\JJ)	.
8r	8e#XJ 8d 8G#X/	.	(8b (8d^\	.
!!LO:LB:g=original
=78	=78	=78	=78	=78
!	!	!	!LO:TX:a:t=P:problem=brak zakończenia łuków	!
8D 8DD/	8r	.	16aLL) 16d/)	.
.	.	.	32ryy	.
!	!	!	!LO:TX:b:t=C:color=red	!
.	.	.	(y32f#/Kyy	.
8r	(16dLL 16A/	.	16dd/)yy	.
.	16aJ 16f# 16d/)	.	32ryy	.
.	.	.	(y32a/Kyy	.
8r	8aJ 8f# 8d/	.	16ff#/)yy	.
.	.	.	32ryy	.
.	.	.	(y32dd^/JJkyy	.
*rep	*	*	*	*
8D 8DD/	8r	.	16bb\)yy	.
.	.	.	16ryy	.
8r	(16aLL 16f# 16d/	.	8..aa^\Lyy	.
.	16ddJ 16a 16f#/)	.	.	.
8r	8ddJ 8a 8f#/	.	.	.
.	.	.	(y32ff#^\Jkkyy	.
*Xrep	*	*	*	*
=79	=79	=79	=79	=79
!	!	!	!LO:TX:b:t=D:color=red	!
8AA#X 8AAA#X/	8r	.	16aa\)yy	.
.	.	.	16ryy	.
8r	(16cc#LL 16g 16e/	.	8..gg^\Lyy	.
.	16eeJ 16cc# 16g/)	.	.	.
8r	8eeJ 8cc# 8g/	.	.	.
.	.	.	(y32cc#\Jkkyy	.
8BB 8BBB/	8r	.	16ee\)yy	.
.	.	.	16ryy	.
8r	(16ddLL 16b 16f#/	.	8..dd^\Lyy	.
.	16aaJ 16dd 16b/)	.	.	.
8r	8aaJ 8dd 8b/	.	.	.
.	.	ff	(y32ccc#^\Jkkyy	.
=80	=80	=80	=80	=80
!	!	!	!LO:TX:b:t=E:color=red	!
16E 16BB 16EE/	16gg#X 16ee 16dd 16b|\	.	16eee\)yy	.
16r	16r	.	16ryy	.
4E 4BB 4EE^/	4bb 4gg# 4ee 4cc# 4b^\	.	8.ddd^\Lyy	.
.	.	.	16bb\Jkyy	.
16AA 16AAA/	16ff# 16dd 16a|\	.	24bb\LLyy	.
.	.	.	24ccc#\yy	.
16r	16r	.	.	.
.	.	.	24bb\JJyy	.
4A 4F# 4D 4AA^\	4aa 4ff# 4dd 4a^\	.	(y16aa\LLyy	.
.	.	.	16ddd\J)yy	.
.	.	p	8ff#^\Jyy	.
=81	=81	=81	=81	=81
!	!	!	!LO:TUP:a:problem=klamra łukowa	!LO:DY:rj
8AA/L	8aL 8c#'/	.	24aa\LL	p
.	.	.	24bb\	.
.	.	.	24aa\JJ	.
8AA/	8b 8d'/	.	16ggn\LL	.
.	.	.	16ee\	.
8AA/J	8gnJ 8e'/	.	16b\	.
.	.	.	16cc#\JJ	.
8D\	(16f#LL 16d/	.	(16dd\LL	.
.	16c#/	.	16cc#\	.
8r	16d/	.	16dd\	.
.	16e-X/	.	16ee-X\	.
8r	16d/	.	16dd\	.
!	!	!	!LO:TX:a:t==B:color=red	!
.	16c#/JJ)	.	16cc#\JJ)	.
=82||	=82||	=82||	=82||	=82||
*k[b-e-]	*k[b-e-]	*	*k[b-e-]	*
!	!	!	!LO:TX:b:i:t=molto legato.	!
4.B-\	8d/L	.	(16dd\LL	.
.	.	.	16gg\JJ	.
.	8g 8d/	.	8bb-X\L	.
.	8ddJ 8g 8d/	.	8ddd\J)	.
4.A\	8r	.	(4ddd^\	.
.	(16ddLL 16g 16e-/	.	.	.
.	16cc/JJ	.	.	.
.	8gg 8cc 8g'/)	.	8ccc\)	.
=83	=83	=83	=83	=83
4.D\	8r	.	(16dd\LL	.
!	!	!	!LO:SIC:v:s=16ff#\JJ	!
.	.	.	16ff\JJ	.
!	!LO:SIC:v:n=3:s=8f#	!	!	!
.	8ccL 8a 8f 8d/	.	8aa\L	.
!	!LO:SIC:v:n=3:s=8f#	!	!	!
!	!LO:N:head=invis	!	!	!
.	8ccJ 8a 8f 8d/	.	8cccn\J)	.
4.G\	8r	.	(4ccc^\	.
.	(16ccLL 16g 16d/	.	.	.
.	16b-/JJ	.	.	.
.	8gg 8b- 8g'/)	.	8bb-X\)	.
!!LO:LB:g=original
=84	=84	=84	=84	=84
(4.G 4.GG\	8r	.	16bb-X\LL	.
.	.	.	16aa\JJ	.
.	8enL 8d-X 8B-/	.	8.bb-\L	.
.	8b-J 8e 8d-/	.	.	.
.	.	.	16een\Jk	.
8F 8FF\)	8r	.	(4gg\	.
!	!LO:S:s=1:note:problem=note-level slur	!	!	!
8r	(16b-LL 16f 16d-/	.	.	.
.	16dd-X/JJ	.	.	.
8r	8f 8d-/)	.	8ff\)	.
=85	=85	=85	=85	=85
*	*^	*	*	*
8F\	8r	4.ryy	.	(16ff\LL	.
.	.	.	.	16eee-\JJ)	.
!	!LO:S:s=1:note:problem=note-level slur	!	!	!	!
8r	(16aLL 16e- 16c/	.	.	8eee-\L	.
.	16cc/JJ	.	.	.	.
8r	8f 8e- 8c/)	.	.	16ddd\L	.
.	.	.	.	16ccc#X\JJ	.
!	!LO:TX:t=P:problem=mixed beam	!	!	!	!
(8B-\L	(8f/L	8d\L	.	(8.ddd\L	.
8A\	8f#X/	8c\	.	.	.
.	.	.	.	16dd\L	.
8D\J)	16g/L	16B-\L	.	16cc#X\	.
.	16a/JJ	16A</JJ	.	16ccn\JJ)	.
=86	=86	=86	=86	=86	=86
4.G\	8b-/)	4.ryy	.	(16b-\LL	.
.	.	.	.	16dd\	.
.	(8b-L 8g 8d/	.	.	16gg\	.
.	.	.	.	16bb-\	.
.	8ddJ 8b- 8g/)	.	.	16.ddd\)	.
.	.	.	.	32eeen\JJk	.
4.En\	8r	8ryy	.	(4ddd^\	.
.	(16dd/LL	8b-L 8g\	.	.	.
.	16cc#X/J)	.	.	.	.
.	8gg'/J	8cc#J 8g\	.	8ccc#X\)	.
=87	=87	=87	=87	=87	=87
8F#X|\L	8r	4.ryy	.	(16a\LL	.
.	.	.	.	16dd\	.
8D|\	8aL 8f#X 8d/	.	.	16ff#X\	.
.	.	.	.	16aa\	.
8F#|\J	8ddJ 8a 8d/	.	.	16.ddd\)	.
.	.	.	.	32aa\JJk	.
4.G\	8r	8ryy	.	(4cccn\	.
.	(<16ee-/LL	8b-L 8g\	.	.	.
.	16dd/J)	.	.	.	.
.	8gg'/J	8ddJ 8b-\	.	8bb-\)	.
.	.	.	ff	.	ff
=88	=88	=88	=88	=88	=88
*ped	*	*	*	*	*
8BB- 8BBB-'/	(16bb-LL 16dd^\	4.ryy	.	16ddd'\LL	.
.	16ff\JJ)	.	.	16ccc\JJ	.
4d 4B- 4F 4D^\	4ff 4dd 4b-^\	.	.	4bb-^\	.
*Xped	*	*	*	*	*
.	.	.	.	.	.
*ped	*	*	*	*	*
8E- 8EE-'/	(<16gg/LL	8b- 8g\	.	16bb-\LL	.
.	16ff/JJ)	.	.	16aa\JJ	.
4e- 4B- 4G^\	4ee-^/	4b- 4g\	.	4gg^\	.
*Xped	*	*	*	*	*
.	.	.	.	.	.
*	*v	*v	*	*	*
!!LO:PB:g=original
=89	=89	=89	=89	=89
8F 8FF/	(16ee-LL 16a/	>	(16gg\LL	.
.	16aJJ 16e-/)	.	16gg-X\	>
8F\L	8aL 8e-/	.	16ee-\	.
!	!	!	!LO:TX:a:t=1ma	!
.	.	.	16cc\	.
8FJ 8FF\	8fJ 8e-/	.	16a\)	]
.	.	.	16ff\JJ	.
8BB- 8BBB-/	8b- 8f 8d/	]	16b-\LL	p
.	.	.	16cc\	.
8r	(24d/LL	p	16dd\	.
.	24e-/	.	.	.
.	.	.	16ee-\	.
.	24d/J	.	.	.
8r	8c#X/J)	.	16dd\	.
.	.	.	16cc#X\JJ	.
=90	=90	=90	=90	=90
*k[f#c#]	*k[f#c#]	*	*k[f#c#]	*
!	!	!	!LO:TX:t=A=B:color=red	!
!	!	!	!LO:TX:b:t=C:color=red:rj	!
!LO:TX:b:t=A=:color=red:rj	!	!	!LO:TX:a:t=Sola.:rj	!
8DLyy 8DD/yy	8f#yy 8d/yy	.	16a/LLyy	.
.	.	.	32ryy	.
.	.	.	(y32f#/Kyy	.
8AA@/yy	8f#Lyy 8dyy 8A/yy	.	16dd/)yy	.
.	.	.	32ryy	.
.	.	.	(y32a/Kyy	.
8FF#@/Jyy	8aJyy 8f#yy 8d/yy	.	16ff#/)yy	.
.	.	.	32ryy	.
.	.	.	(y32dd^/JJkyy	.
4D@yy 4DD@/yy	8ryy	.	16bb\)yy	.
.	.	.	16ryy	.
.	8f#Lyy 8dyy 8A/yy	.	8..aa^\Lyy	.
8ryy	8f#Jyy 8dyy 8A/yy	.	.	.
.	.	.	(y32ff#^\Jkkyy	.
=91	=91	=91	=91	=91
!	!	!	!LO:TX:b:t=D:color=red	!
4AA/yy	8ryy	.	16aa\)yy	.
.	.	.	16ryy	.
.	8gLyy 8eyy 8c#yy 8A/yy	.	8..gg^\Lyy	.
8r@yy	8gJyy 8eyy 8c#yy 8A/yy	.	.	.
.	.	.	(y32cc#\Jkkyy	.
4D\yy	8ryy	.	16ee\)yy	.
.	.	.	16ryy	.
.	8f#Lyy 8dyy 8A/yy	.	8..dd^\Lyy	.
8ryy	8f#Jyy 8dyy 8A/yy	.	.	.
.	.	.	(y32ccc#^\Jkkyy	.
=92	=92	=92	=92	=92
!	!	!	!LO:TX:b:t=E:color=red	!
4GG/yy	8ryy	.	16eee\)yy	.
.	.	.	16ryy	.
.	8gLyy 8dyy 8B/yy	.	8.ddd^\Lyy	.
8ryy	8gJyy 8dyy 8B/yy	.	.	.
.	.	.	16bb\Jkyy	.
!	!	!	!LO:TUP:a:problem=klamra łukowa	!
4AA/yy	8ryy	.	24bb\LLyy	.
.	.	.	24ccc#\yy	.
.	.	.	24bb\JJyy	.
.	8f#Lyy 8dyyy 8A/yy	.	(y16aa\LLyy	.
.	.	.	16ddd\J)yy	.
8ryy	8f#Jyy 8dyy 8A/yy	.	(y8ff#^\Jyy	.
=93	=93	=93	=93	=93
4AA/yy	8ryy	.	16aa\)yy	.
.	.	.	16ryy	.
.	8gLyy 8eyy 8c#yy 8A/yy	.	8.gg^\Lyy	.
8ryy	8gJyy 8eyy 8c#yyy 8A/yy	.	.	.
.	.	.	16cc#\Jkyy	.
!	!	!	!LO:TUP:a:problem=klamra łukowa	!
4D\yy	8ryy	.	24dd\LLyy	.
.	.	.	24ff#\yy	.
.	.	.	24ee\JJyy	.
.	8f#Lyy 8dyy 8A/yy	.	(y16dd\LLyy	.
.	.	.	16ff\JJ)yy	.
8ryy	8e#XJyy 8dyy 8G#X/yy	.	(y8byy (y8d^\yy	.
!!LO:LB:g=original
=94	=94	=94	=94	=94
!	!	!	!LO:TX:a:t=P:problem=brak zakończenia łuków	!
8Dyy 8DD/yy	8ryy	.	16aLL)yy 16d/)yy	.
.	.	.	32ryy	.
!	!	!	!LO:TX:b:t=C:color=red	!
.	.	.	(y32f#/Kyy	.
8ryy	(y16dLLyy 16A/yy	.	16dd/)yy	.
.	16aJyy 16f#yy 16d/)yy	.	32ryy	.
.	.	.	(y32a/Kyy	.
8ryy	8aJyy 8f#yy 8d/yy	.	16ff#/)yy	.
.	.	.	32ryy	.
.	.	.	(y32dd^/JJkyy	.
*yrep	*	*	*	*
8Dyy 8DD/yy	8ryy	.	16bb\)yy	.
.	.	.	16ryy	.
8ryy	(y16aLLyy 16f#yy 16d/yy	.	8..aa^\Lyy	.
.	16ddJyy 16ayy 16f#/)yy	.	.	.
8ryy	8ddJyy 8ayy 8f#/yy	.	.	.
.	.	.	(y32ff#^\Jkkyy	.
*Xrep	*	*	*	*
=95	=95	=95	=95	=95
!	!	!	!LO:TX:b:t=D:color=red	!
8AA#Xyy 8AAA#X/yy	8ryy	.	16aa\)yy	.
.	.	.	16ryy	.
8ryy	(y16cc#LLyy 16gyy 16e/yy	.	8..gg^\Lyy	.
.	16eeJyy 16cc#yy 16g/)yy	.	.	.
8ryy	8eeJyy 8cc#yy 8g/yy	.	.	.
.	.	.	(y32cc#\Jkkyy	.
8BByy 8BBB/yy	8ryy	.	16ee\)yy	.
.	.	.	16ryy	.
8ryy	(y16ddLLyy 16byy 16f#/yy	.	8..dd^\Lyy	.
.	16aaJyy 16ddyy 16b/)yy	.	.	.
8ryy	8aaJyy 8ddyy 8b/yy	.	.	.
.	.	ffy	(y32ccc#^\Jkkyy	.
=96	=96	=96	=96	=96
!	!	!	!LO:TX:b:t=E:color=red	!
16Eyy 16BByy 16EE/yy	16gg#Xyy 16eeyy 16ddyy 16b|\yy	.	16eee\)yy	.
16ryy	16ryy	.	16ryy	.
4Eyy 4BByy 4EE^/yy	4bbyy 4gg#yy 4eeyy 4cc#yy 4b^\yy	.	8.ddd^\Lyy	.
.	.	.	16bb\Jkyy	.
16AAyy 16AAA/yy	16ff#yy 16ddyy 16a|\yy	.	24bb\LLyy	.
.	.	.	24ccc#\yy	.
16ryy	16ryy	.	.	.
.	.	.	24bb\JJyy	.
4Ayy 4F#yy 4Dyy 4AA^\yy	4aayy 4ff#yy 4ddyy 4a^\yy	.	(y16aa\LLyy	.
.	.	.	16ddd\J)yy	.
.	.	py	8ff#^\Jyy	.
=97	=97	=97	=97	=97
!	!	!	!LO:TUP:a:problem=klamra łukowa	!LO:DY:rj
8AA/Lyy	8aLyy 8c#'/yy	.	24aa\LLyy	py
.	.	.	24bb\yy	.
.	.	.	24aa\JJyy	.
8AA/yy	8byy 8d'/yy	.	16ggn\LLyy	.
.	.	.	16ee\yy	.
8AA/Jyy	8gnJyy 8e'yy/	.	16b\yy	.
.	.	.	16cc#\JJyy	.
8D\yy	(y16f#LLyy 16d/yy	.	(y16dd\LLyy	.
.	16c#/yy	.	16cc#\yy	.
8ryy	16d/yy	.	16dd\yy	.
.	16e-X/yy	.	16ee-X\yy	.
8ryy	16d/yy	.	16dd\yy	.
!	!	!	!LO:TX:a:t==B:color=red	!
.	16c#/JJ)yy	.	16cc#\JJ)yy	.
!!LO:LB:g=original
=98	=98	=98	=98	=98
*k[b-e-]	*k[b-e-]	*	*k[b-e-]	*
8F 8FF/	(16ee-LL 16a/	.	16gg\LL	.
.	16aJJ 16e-/)	.	16ff\	.
8F/L	8aL 8e-/	.	16gg\	.
.	.	.	16ff\	.
!	!	!	!LO:TX:a:t=2da	!
8FJ 8FF/	8b-J 8d/	.	16gg\	.
.	.	.	16ff\JJ	.
8F/L	8ccL 8e-/	.	16aa\LL	.
.	.	.	16gg\	.
8F/	8a 8e-/	.	16ff\	.
.	.	.	16ee-\	.
8F/J	8ffJ 8a 8e-/	.	16dd\	.
.	.	.	16cc\JJ	.
=99	=99	=99	=99	=99
!	!	!LO:DY:rj	!LO:TX:a:i:t=piu moſso	!LO:DY:rj
8B-\L	8b-L 8d/	ff	16b-\LL	ff
.	.	.	16dd\	.
8G\	8b- 8d/	.	16gg\	.
.	.	.	16ff\	.
8F\J	8ccJ 8a 8f/	.	16gg\	.
.	.	.	16ff\JJ	.
8B-L 8BB-\	8ddL 8b- 8f/	.	16gg\LL	.
.	.	.	16ff\	.
8G\	8b- 8d/	.	16gg'\	.
.	.	.	16ff\	.
8F\J	8ccJ 8a 8f/	.	16gg\	.
.	.	.	16ff\JJ	.
=100	=100	=100	=100	=100
8B-\L	8ddL 8b- 8f\	.	16bb-\LL	.
.	.	.	16ddd\JJ	.
8D\	8ff 8b- 8f\	.	16ggg'\LL	.
.	.	.	16fff\	.
8F\J	8aaJ 8ff 8cc\	.	16ggg\	.
.	.	.	16fff\JJ	.
*	*	*	*tremolo	*
8B-\L	8bb-L 8ff 8dd\	.	16ggg\LL	.
.	.	.	16fff\	.
8D\	8gg 8b-\	.	16ggg\	.
.	.	.	16fff\	.
8F\J	8aaJ 8ff 8cc\	.	16ggg\	.
.	.	.	16fff\JJ	.
=101	=101	=101	=101	=101
8B-L 8BB-/	8bb-\L	.	16ddd\LL	.
.	.	.	16ddd\	.
8F 8FF/	8ccc 8aa 8ff\	.	16fff\	.
.	.	.	16fff\	.
8B-J 8BB-/	8dddJ 8bb- 8ff\	.	16ddd\	.
.	.	.	16ddd\JJ	.
8FL 8FF/	8cccL 8aa 8ff\	.	16fff\LL	.
.	.	.	16fff\	.
8B- 8BB-/	8ddd 8bb- 8ff\	.	16ddd\	.
.	.	.	16ddd\	.
8FJ 8FF/	8cccJ 8aa 8ff\	.	16fff\	.
.	.	.	16fff\JJ	.
=102	=102	=102	=102	=102
*rep	*rep	*	*rep	*
8B-L 8BB-/	8bb-\L	.	16ddd\LL	.
.	.	.	16ddd\	.
8F 8FF/	8ccc 8aa 8ff\	.	16fff\	.
.	.	.	16fff\	.
8B-J 8BB-/	8dddJ 8bb- 8ff\	.	16ddd\	.
.	.	.	16ddd\JJ	.
8FL 8FF/	8cccL 8aa 8ff\	.	16fff\LL	.
.	.	.	16fff\	.
8B- 8BB-/	8ddd 8bb- 8ff\	.	16ddd\	.
.	.	.	16ddd\	.
8FJ 8FF/	8cccJ 8aa 8ff\	.	16fff\	.
.	.	.	16fff\JJ	.
*Xrep	*Xrep	*	*Xrep	*
!!LO:LB:g=original
=103	=103	=103	=103	=103
*tremolo	*	*	*	*
16FFLL 16BBB-/	8bb-L 8dd\	.	16bb-\LL	.
16BB-/	.	.	16bb-\	.
16FF 16BBB-/	8ff 8dd\	.	16ff\	.
16BB-/	.	.	16ff\	.
16FF 16BBB-/	8ddJ 8b-\	.	16dd\	.
16BB-/	.	.	16dd\JJ	.
16FF 16BBB-/	8b-L 8d/	.	16b-/LL	.
16BB-/	.	.	16b-/	.
16FF 16BBB-/	8f 8d/	.	16f/	.
16BB-/	.	.	16f/	.
16FF 16BBB-/	8dJ 8B-/	.	16d/	.
16BB-/JJ	.	.	16d/JJ	.
=104	=104	=104	=104	=104
*rep	*	*	*	*
16FFLL 16BBB-/	8fL 8d/	.	16f\LL	.
16BB-/	.	.	16f\	.
16FF 16BBB-/	8b- 8f 8d/	.	16b-\	.
16BB-/	.	.	16b-\	.
16FF 16BBB-/	8ddJ 8b- 8f/	.	16dd\	.
16BB-/	.	.	16dd\JJ	.
16FF 16BBB-/	8ffL 8dd 8b-\	.	16ff\LL	.
16BB-/	.	.	16ff\	.
16FF 16BBB-/	8bb- 8ff 8dd\	.	16bb-\	.
16BB-/	.	.	16bb-\	.
16FF 16BBB-/	8dddJ 8bb- 8ff\	.	16ddd\	.
16BB-/JJ	.	.	16ddd\JJ	.
*Xrep	*	*	*	*
*Xtremolo	*	*	*Xtremolo	*
=105	=105	=105	=105	=105
8BBB-/	8bb- 8ff 8dd\	.	8bb-\	.
8r	8r	.	8r	.
8r	8r	.	8r	.
!	!	!LO:DY:rj:t=sff	!	!LO:DY:rj:t=sff
8B- 8F 8BB-\	8bb- 8ff 8dd 8b-\	sf	8bb- 8b- 8d\	sf
8r	8r	.	8r	.
8r;	8r;	.	8r;	.
==	==	==	==	==
*-	*-	*-	*-	*-
!!!system-decoration: {(s1,s2,s3)}
!!!RDF**kern: > = above
!!!RDF**kern: < = below
!!!RDF**kern: | = vertical stroke
!!!RDF**kern: @ = marked note, color=gray
!!!ENC: Katarzyna Serwa
!!!END: 2021-09-01
!!!ENC: Andrzej Kubiczek
!!!END: 2021-09-27
!!!YEC: Copyright 2022 Narodowy Instytut Fryderyka Chopina (https://polishscores.org)
!!!YEM: Licence CC BY 4.0 (https://creativecommons.org/licenses/by/4.0)
